X: 10302
T: Dolina MacKay
R: reel
M: 4/4
K: Aminor
A2A2 GAAB|BABd e2de|aeea e2dB|A2Ae dBGB|
A2A2 GAAB|BABd e2de|aeea e2dB|A2BG A4:|
|:aeea e2de|aged e2de|gddg d2gd|e^fge fedB|
aeea e2de|aged e2de|aeea e2dB|A2BG A4:|
|:ABBd e2de|aged e2dB|GBBd e2de|gedB e2dB|
ABBd e2de|aged e2de|aeea e2dB|A2BG A4:|
|:AaaA ggAa|zAag e2dg|Ggge g2 de|gedB e2dB|
AaaA ggAa|zAag e2de|aeea e2dB|A2BG A4:|

